;FLAVOR:UltiGCode
;TIME:12310
;MATERIAL:20934
;MATERIAL2:0
;NOZZLE_DIAMETER:0.4
;MINX:41.125
;MINY:48.625
;MINZ:0.27
;MAXX:181.875
;MAXY:174.375
;MAXZ:3.27
;Generated with Cura_SteamEngine master
M82 ;absolute extrusion mode

G92 E0
G92 E0
G10
;LAYER_COUNT:36
;LAYER:0
M107
G0 F4500 X44.149 Y50.296 Z0.27
;TYPE:SKIRT
G11
G1 F1800 X44.798 Y49.84 E0.07496
G1 X45.49 Y49.451 E0.14997
G1 X46.217 Y49.133 E0.22496
G1 X46.973 Y48.89 E0.3
G1 X47.749 Y48.725 E0.37497
G1 X48.537 Y48.639 E0.44988
G1 X49 Y48.625 E0.49366
G1 X174 Y48.625 E12.30616
G1 X174.792 Y48.665 E12.38109
G1 X175.577 Y48.784 E12.45612
G1 X176.345 Y48.982 E12.53107
G1 X177.09 Y49.257 E12.60612
G1 X177.803 Y49.604 E12.68105
G1 X178.478 Y50.022 E12.75608
G1 X179.107 Y50.505 E12.83102
G1 X179.684 Y51.05 E12.90603
G1 X180.204 Y51.649 E12.98099
G1 X180.66 Y52.298 E13.05594
G1 X181.049 Y52.99 E13.13096
G1 X181.367 Y53.717 E13.20595
G1 X181.61 Y54.473 E13.28099
G1 X181.775 Y55.249 E13.35596
G1 X181.861 Y56.037 E13.43087
G1 X181.875 Y56.5 E13.47464
G1 X181.875 Y166.5 E23.86964
G1 X181.835 Y167.292 E23.94458
G1 X181.716 Y168.077 E24.01961
G1 X181.518 Y168.845 E24.09456
G1 X181.243 Y169.59 E24.16961
G1 X180.896 Y170.303 E24.24454
G1 X180.478 Y170.978 E24.31957
G1 X179.995 Y171.607 E24.39451
G1 X179.45 Y172.184 E24.46952
G1 X178.851 Y172.704 E24.54448
G1 X178.202 Y173.16 E24.61943
G1 X177.51 Y173.549 E24.69445
G1 X176.783 Y173.867 E24.76944
G1 X176.027 Y174.11 E24.84448
G1 X175.251 Y174.275 E24.91945
G1 X174.463 Y174.361 E24.99436
G1 X174 Y174.375 E25.03813
G1 X49 Y174.375 E36.85063
G1 X48.208 Y174.335 E36.92557
G1 X47.423 Y174.216 E37.0006
G1 X46.655 Y174.018 E37.07555
G1 X45.91 Y173.743 E37.1506
G1 X45.197 Y173.396 E37.22553
G1 X44.522 Y172.978 E37.30056
G1 X43.893 Y172.495 E37.3755
G1 X43.316 Y171.95 E37.45051
G1 X42.796 Y171.351 E37.52547
G1 X42.34 Y170.702 E37.60042
G1 X41.951 Y170.01 E37.67544
G1 X41.633 Y169.283 E37.75043
G1 X41.39 Y168.527 E37.82547
G1 X41.225 Y167.751 E37.90044
G1 X41.139 Y166.963 E37.97535
G1 X41.125 Y166.5 E38.01912
G1 X41.125 Y56.5 E48.41412
G1 X41.165 Y55.708 E48.48906
G1 X41.284 Y54.923 E48.56409
G1 X41.482 Y54.155 E48.63904
G1 X41.757 Y53.41 E48.71408
G1 X42.104 Y52.697 E48.78902
G1 X42.522 Y52.022 E48.86405
G1 X43.005 Y51.393 E48.93899
G1 X43.55 Y50.816 E49.01399
G1 X44.149 Y50.296 E49.08895
G0 F4500 X44.49 Y50.476
G1 F1800 X45.134 Y50.044 E49.16224
G1 X45.819 Y49.681 E49.2355
G1 X46.538 Y49.389 E49.30883
G1 X47.283 Y49.174 E49.38211
G1 X48.046 Y49.036 E49.45538
G1 X49 Y48.975 E49.54572
G1 X174 Y48.975 E61.35822
G1 X174.775 Y49.015 E61.43155
G1 X175.541 Y49.134 E61.50481
G1 X176.291 Y49.332 E61.57811
G1 X177.017 Y49.606 E61.65144
G1 X177.71 Y49.953 E61.72468
G1 X178.364 Y50.37 E61.79798
G1 X178.972 Y50.852 E61.8713
G1 X179.527 Y51.394 E61.94461
G1 X180.024 Y51.99 E62.01794
G1 X180.456 Y52.634 E62.09122
G1 X180.819 Y53.319 E62.16448
G1 X181.111 Y54.038 E62.23782
G1 X181.326 Y54.783 E62.3111
G1 X181.464 Y55.546 E62.38437
G1 X181.525 Y56.5 E62.47471
G1 X181.525 Y166.5 E72.86971
G1 X181.485 Y167.275 E72.94304
G1 X181.366 Y168.041 E73.0163
G1 X181.168 Y168.791 E73.0896
G1 X180.894 Y169.517 E73.16293
G1 X180.547 Y170.21 E73.23617
G1 X180.13 Y170.864 E73.30947
G1 X179.648 Y171.472 E73.38279
G1 X179.106 Y172.027 E73.4561
G1 X178.51 Y172.524 E73.52943
G1 X177.866 Y172.956 E73.60271
G1 X177.181 Y173.319 E73.67597
G1 X176.462 Y173.611 E73.74931
G1 X175.717 Y173.826 E73.82258
G1 X174.954 Y173.964 E73.89586
G1 X174 Y174.025 E73.98619
G1 X49 Y174.025 E85.79869
G1 X48.225 Y173.985 E85.87203
G1 X47.459 Y173.866 E85.94528
G1 X46.709 Y173.668 E86.01859
G1 X45.983 Y173.394 E86.09192
G1 X45.29 Y173.047 E86.16516
G1 X44.636 Y172.63 E86.23845
G1 X44.028 Y172.148 E86.31178
G1 X43.473 Y171.606 E86.38508
G1 X42.976 Y171.01 E86.45842
G1 X42.544 Y170.366 E86.5317
G1 X42.181 Y169.681 E86.60496
G1 X41.889 Y168.962 E86.6783
G1 X41.674 Y168.217 E86.75157
G1 X41.536 Y167.454 E86.82484
G1 X41.475 Y166.5 E86.91518
G1 X41.475 Y56.5 E97.31018
G1 X41.515 Y55.725 E97.38352
G1 X41.634 Y54.959 E97.45677
G1 X41.832 Y54.209 E97.53008
G1 X42.106 Y53.483 E97.60341
G1 X42.453 Y52.79 E97.67665
G1 X42.87 Y52.136 E97.74994
G1 X43.352 Y51.528 E97.82326
G1 X43.894 Y50.973 E97.89657
G1 X44.49 Y50.476 E97.96991
G0 F4500 X44.829 Y50.662
G1 F1800 X45.468 Y50.255 E98.0415
G1 X46.146 Y49.917 E98.11309
G1 X46.855 Y49.653 E98.18459
G1 X47.589 Y49.465 E98.25619
G1 X48.338 Y49.356 E98.32771
G1 X49 Y49.325 E98.39034
G1 X174 Y49.325 E110.20284
G1 X174.756 Y49.365 E110.27438
G1 X175.504 Y49.484 E110.34596
G1 X176.235 Y49.682 E110.41753
G1 X176.942 Y49.956 E110.48918
G1 X177.615 Y50.302 E110.56069
G1 X178.248 Y50.718 E110.63227
G1 X178.834 Y51.198 E110.70386
G1 X179.366 Y51.737 E110.77542
G1 X179.838 Y52.329 E110.84697
G1 X180.245 Y52.968 E110.91857
G1 X180.583 Y53.646 E110.99016
G1 X180.847 Y54.355 E111.06165
G1 X181.035 Y55.089 E111.13325
G1 X181.144 Y55.838 E111.20478
G1 X181.175 Y56.5 E111.26741
G1 X181.175 Y166.5 E121.66241
G1 X181.135 Y167.256 E121.73395
G1 X181.016 Y168.004 E121.80552
G1 X180.818 Y168.735 E121.87709
G1 X180.544 Y169.442 E121.94875
G1 X180.198 Y170.115 E122.02026
G1 X179.782 Y170.748 E122.09184
G1 X179.302 Y171.334 E122.16342
G1 X178.763 Y171.866 E122.23499
G1 X178.171 Y172.338 E122.30654
G1 X177.532 Y172.745 E122.37813
G1 X176.854 Y173.083 E122.44972
G1 X176.145 Y173.347 E122.52122
G1 X175.411 Y173.535 E122.59282
G1 X174.662 Y173.644 E122.66435
G1 X174 Y173.675 E122.72697
G1 X49 Y173.675 E134.53947
G1 X48.244 Y173.635 E134.61101
G1 X47.496 Y173.516 E134.68259
G1 X46.765 Y173.318 E134.75416
G1 X46.058 Y173.044 E134.82581
G1 X45.385 Y172.698 E134.89732
G1 X44.752 Y172.282 E134.9689
G1 X44.166 Y171.802 E135.04049
G1 X43.634 Y171.263 E135.11205
G1 X43.162 Y170.671 E135.1836
G1 X42.755 Y170.032 E135.2552
G1 X42.417 Y169.354 E135.32679
G1 X42.153 Y168.645 E135.39828
G1 X41.965 Y167.911 E135.46988
G1 X41.856 Y167.162 E135.54141
G1 X41.825 Y166.5 E135.60404
G1 X41.825 Y56.5 E145.99904
G1 X41.865 Y55.744 E146.07058
G1 X41.984 Y54.996 E146.14215
G1 X42.182 Y54.265 E146.21372
G1 X42.456 Y53.558 E146.28538
G1 X42.802 Y52.885 E146.35689
G1 X43.218 Y52.252 E146.42847
G1 X43.698 Y51.666 E146.50005
G1 X44.237 Y51.134 E146.57162
G1 X44.829 Y50.662 E146.64317
G0 F4500 X44.579 Y51.3
G1 F1800 X45.167 Y50.853 E146.71297
G1 X45.8 Y50.472 E146.78279
G1 X46.47 Y50.161 E146.85259
G1 X47.17 Y49.925 E146.9224
G1 X47.891 Y49.766 E146.99217
G1 X48.626 Y49.685 E147.06205
G1 X49 Y49.675 E147.0974
G1 X174 Y49.675 E158.9099
G1 X174.738 Y49.715 E158.97975
G1 X175.466 Y49.834 E159.04945
G1 X176.178 Y50.032 E159.11929
G1 X176.864 Y50.305 E159.18906
G1 X177.517 Y50.651 E159.2589
G1 X178.129 Y51.065 E159.32872
G1 X178.692 Y51.543 E159.39852
G1 X179.2 Y52.079 E159.4683
G1 X179.647 Y52.667 E159.5381
G1 X180.028 Y53.3 E159.60792
G1 X180.339 Y53.97 E159.67772
G1 X180.575 Y54.67 E159.74753
G1 X180.734 Y55.391 E159.8173
G1 X180.815 Y56.126 E159.88718
G1 X180.825 Y56.5 E159.92254
G1 X180.825 Y166.5 E170.31754
G1 X180.785 Y167.238 E170.38738
G1 X180.666 Y167.966 E170.45709
G1 X180.468 Y168.678 E170.52693
G1 X180.195 Y169.364 E170.5967
G1 X179.849 Y170.017 E170.66653
G1 X179.435 Y170.629 E170.73636
G1 X178.957 Y171.192 E170.80615
G1 X178.421 Y171.7 E170.87594
G1 X177.833 Y172.147 E170.94574
G1 X177.2 Y172.528 E171.01556
G1 X176.53 Y172.839 E171.08536
G1 X175.83 Y173.075 E171.15517
G1 X175.109 Y173.234 E171.22494
G1 X174.374 Y173.315 E171.29482
G1 X174 Y173.325 E171.33017
G1 X49 Y173.325 E183.14267
G1 X48.262 Y173.285 E183.21252
G1 X47.534 Y173.166 E183.28222
G1 X46.822 Y172.968 E183.35206
G1 X46.136 Y172.695 E183.42183
G1 X45.483 Y172.349 E183.49167
G1 X44.871 Y171.935 E183.56149
G1 X44.308 Y171.457 E183.63129
G1 X43.8 Y170.921 E183.70107
G1 X43.353 Y170.333 E183.77087
G1 X42.972 Y169.7 E183.84069
G1 X42.661 Y169.03 E183.91049
G1 X42.425 Y168.33 E183.9803
G1 X42.266 Y167.609 E184.05007
G1 X42.185 Y166.874 E184.11995
G1 X42.175 Y166.5 E184.15531
G1 X42.175 Y56.5 E194.55031
G1 X42.215 Y55.762 E194.62015
G1 X42.334 Y55.034 E194.68986
G1 X42.532 Y54.322 E194.7597
G1 X42.805 Y53.636 E194.82947
G1 X43.151 Y52.983 E194.8993
G1 X43.565 Y52.371 E194.96913
G1 X44.043 Y51.808 E195.03892
G1 X44.579 Y51.3 E195.10871
G0 F4500 X44.921 Y51.471
G1 F1800 X45.504 Y51.05 E195.17666
G1 X46.131 Y50.696 E195.24471
G1 X46.792 Y50.413 E195.31266
G1 X47.481 Y50.206 E195.38064
G1 X48.189 Y50.076 E195.44867
G1 X49 Y50.025 E195.52546
G1 X174 Y50.025 E207.33796
G1 X174.718 Y50.065 E207.40591
G1 X175.428 Y50.184 E207.47394
G1 X176.12 Y50.382 E207.54196
G1 X176.785 Y50.655 E207.60989
G1 X177.417 Y51 E207.67794
G1 X178.006 Y51.413 E207.74592
G1 X178.545 Y51.889 E207.81387
G1 X179.029 Y52.421 E207.88184
G1 X179.45 Y53.004 E207.9498
G1 X179.804 Y53.631 E208.01784
G1 X180.087 Y54.292 E208.08579
G1 X180.294 Y54.981 E208.15377
G1 X180.424 Y55.689 E208.2218
G1 X180.475 Y56.5 E208.29859
G1 X180.475 Y166.5 E218.69359
G1 X180.435 Y167.218 E218.76154
G1 X180.316 Y167.928 E218.82958
G1 X180.118 Y168.62 E218.89759
G1 X179.845 Y169.285 E218.96553
G1 X179.5 Y169.917 E219.03357
G1 X179.087 Y170.506 E219.10155
G1 X178.611 Y171.045 E219.1695
G1 X178.079 Y171.529 E219.23747
G1 X177.496 Y171.95 E219.30543
G1 X176.869 Y172.304 E219.37347
G1 X176.208 Y172.587 E219.44142
G1 X175.519 Y172.794 E219.5094
G1 X174.811 Y172.924 E219.57743
G1 X174 Y172.975 E219.65422
G1 X49 Y172.975 E231.46672
G1 X48.282 Y172.935 E231.53468
G1 X47.572 Y172.816 E231.60271
G1 X46.88 Y172.618 E231.67072
G1 X46.215 Y172.345 E231.73866
G1 X45.583 Y172 E231.8067
G1 X44.994 Y171.587 E231.87468
G1 X44.455 Y171.111 E231.94263
G1 X43.971 Y170.579 E232.0106
G1 X43.55 Y169.996 E232.07856
G1 X43.196 Y169.369 E232.1466
G1 X42.913 Y168.708 E232.21455
G1 X42.706 Y168.019 E232.28253
G1 X42.576 Y167.311 E232.35056
G1 X42.525 Y166.5 E232.42735
G1 X42.525 Y56.5 E242.82235
G1 X42.565 Y55.782 E242.89031
G1 X42.684 Y55.072 E242.95834
G1 X42.882 Y54.38 E243.02636
G1 X43.155 Y53.715 E243.09429
G1 X43.5 Y53.083 E243.16233
G1 X43.913 Y52.494 E243.23031
G1 X44.389 Y51.955 E243.29826
G1 X44.921 Y51.471 E243.36623
G0 F4500 X45.262 Y51.648
G1 F1800 X45.84 Y51.253 E243.43239
G1 X46.459 Y50.927 E243.4985
G1 X47.111 Y50.673 E243.56462
G1 X47.788 Y50.496 E243.63075
G1 X48.481 Y50.397 E243.69691
G1 X49 Y50.375 E243.74599
G1 X174 Y50.375 E255.55849
G1 X174.699 Y50.415 E255.62466
G1 X175.388 Y50.534 E255.69073
G1 X176.059 Y50.732 E255.75685
G1 X176.704 Y51.004 E255.823
G1 X177.313 Y51.348 E255.88909
G1 X177.879 Y51.76 E255.95525
G1 X178.394 Y52.233 E256.02133
G1 X178.852 Y52.762 E256.08745
G1 X179.247 Y53.34 E256.15361
G1 X179.573 Y53.959 E256.21972
G1 X179.827 Y54.611 E256.28585
G1 X180.004 Y55.288 E256.35197
G1 X180.103 Y55.981 E256.41813
G1 X180.125 Y56.5 E256.46722
G1 X180.125 Y166.5 E266.86222
G1 X180.085 Y167.199 E266.92838
G1 X179.966 Y167.888 E266.99445
G1 X179.768 Y168.559 E267.06057
G1 X179.496 Y169.204 E267.12672
G1 X179.152 Y169.813 E267.19281
G1 X178.74 Y170.379 E267.25897
G1 X178.267 Y170.894 E267.32505
G1 X177.738 Y171.352 E267.39117
G1 X177.16 Y171.747 E267.45733
G1 X176.541 Y172.073 E267.52344
G1 X175.889 Y172.327 E267.58957
G1 X175.212 Y172.504 E267.65569
G1 X174.519 Y172.603 E267.72185
G1 X174 Y172.625 E267.77094
G1 X49 Y172.625 E279.58344
G1 X48.301 Y172.585 E279.6496
G1 X47.612 Y172.466 E279.71568
G1 X46.941 Y172.268 E279.78179
G1 X46.296 Y171.996 E279.84794
G1 X45.687 Y171.652 E279.91404
G1 X45.121 Y171.24 E279.98019
G1 X44.606 Y170.767 E280.04627
G1 X44.148 Y170.238 E280.1124
G1 X43.753 Y169.66 E280.17855
G1 X43.427 Y169.041 E280.24466
G1 X43.173 Y168.389 E280.31079
G1 X42.996 Y167.712 E280.37692
G1 X42.897 Y167.019 E280.44307
G1 X42.875 Y166.5 E280.49216
G1 X42.875 Y56.5 E290.88716
G1 X42.915 Y55.801 E290.95332
G1 X43.034 Y55.112 E291.0194
G1 X43.232 Y54.441 E291.08551
G1 X43.504 Y53.796 E291.15166
G1 X43.848 Y53.187 E291.21776
G1 X44.26 Y52.621 E291.28391
G1 X44.733 Y52.106 E291.34999
G1 X45.262 Y51.648 E291.41612
G0 F4500 X45.602 Y51.831
G1 F1800 X46.174 Y51.464 E291.48034
G1 X46.785 Y51.167 E291.54454
G1 X47.427 Y50.943 E291.6088
G1 X48.09 Y50.797 E291.67295
G1 X49 Y50.725 E291.75921
G1 X174 Y50.725 E303.57171
G1 X174.678 Y50.765 E303.6359
G1 X175.347 Y50.884 E303.70011
G1 X175.997 Y51.081 E303.76429
G1 X176.62 Y51.353 E303.82853
G1 X177.206 Y51.697 E303.89275
G1 X177.748 Y52.107 E303.95697
G1 X178.238 Y52.577 E304.02113
G1 X178.669 Y53.102 E304.08532
G1 X179.036 Y53.674 E304.14954
G1 X179.333 Y54.285 E304.21374
G1 X179.557 Y54.927 E304.278
G1 X179.703 Y55.59 E304.34215
G1 X179.775 Y56.5 E304.42842
G1 X179.775 Y166.5 E314.82342
G1 X179.735 Y167.178 E314.8876
G1 X179.616 Y167.847 E314.95181
G1 X179.419 Y168.497 E315.016
G1 X179.147 Y169.12 E315.08024
G1 X178.803 Y169.706 E315.14445
G1 X178.393 Y170.248 E315.20867
G1 X177.923 Y170.738 E315.27284
G1 X177.398 Y171.169 E315.33703
G1 X176.826 Y171.536 E315.40125
G1 X176.215 Y171.833 E315.46545
G1 X175.573 Y172.057 E315.52971
G1 X174.91 Y172.203 E315.59386
G1 X174 Y172.275 E315.68012
G1 X49 Y172.275 E327.49262
G1 X48.322 Y172.235 E327.55681
G1 X47.653 Y172.116 E327.62102
G1 X47.003 Y171.919 E327.6852
G1 X46.38 Y171.647 E327.74944
G1 X45.794 Y171.303 E327.81366
G1 X45.252 Y170.893 E327.87788
G1 X44.762 Y170.423 E327.94204
G1 X44.331 Y169.898 E328.00623
G1 X43.964 Y169.326 E328.07045
G1 X43.667 Y168.715 E328.13465
G1 X43.443 Y168.073 E328.19891
G1 X43.297 Y167.41 E328.26306
G1 X43.225 Y166.5 E328.34933
G1 X43.225 Y56.5 E338.74433
G1 X43.265 Y55.822 E338.80851
G1 X43.384 Y55.153 E338.87272
G1 X43.581 Y54.503 E338.93691
G1 X43.853 Y53.88 E339.00115
G1 X44.197 Y53.294 E339.06536
G1 X44.607 Y52.752 E339.12958
G1 X45.077 Y52.262 E339.19375
G1 X45.602 Y51.831 E339.25794
G0 F4500 X45.42 Y52.424
G1 F1800 X45.941 Y52.02 E339.32024
G1 X46.506 Y51.682 E339.38246
G1 X47.108 Y51.416 E339.44465
G1 X47.738 Y51.224 E339.50689
G1 X48.386 Y51.11 E339.56907
G1 X49 Y51.075 E339.62718
G1 X174 Y51.075 E351.43968
G1 X174.657 Y51.115 E351.50188
G1 X175.305 Y51.234 E351.56414
G1 X175.933 Y51.431 E351.62634
G1 X176.533 Y51.703 E351.6886
G1 X177.096 Y52.045 E351.75085
G1 X177.613 Y52.453 E351.81308
G1 X178.076 Y52.92 E351.87523
G1 X178.48 Y53.441 E351.93753
G1 X178.818 Y54.006 E351.99975
G1 X179.084 Y54.608 E352.06194
G1 X179.276 Y55.238 E352.12418
G1 X179.39 Y55.886 E352.18636
G1 X179.425 Y56.5 E352.24448
G1 X179.425 Y166.5 E362.63948
G1 X179.385 Y167.157 E362.70168
G1 X179.266 Y167.805 E362.76394
G1 X179.069 Y168.433 E362.82614
G1 X178.797 Y169.033 E362.88839
G1 X178.455 Y169.596 E362.95064
G1 X178.047 Y170.113 E363.01288
G1 X177.58 Y170.576 E363.07502
G1 X177.059 Y170.98 E363.13732
G1 X176.494 Y171.318 E363.19954
G1 X175.892 Y171.584 E363.26174
G1 X175.262 Y171.776 E363.32398
G1 X174.614 Y171.89 E363.38615
G1 X174 Y171.925 E363.44427
G1 X49 Y171.925 E375.25677
G1 X48.343 Y171.885 E375.31897
G1 X47.695 Y171.766 E375.38123
G1 X47.067 Y171.569 E375.44343
G1 X46.467 Y171.297 E375.50568
G1 X45.904 Y170.955 E375.56793
G1 X45.387 Y170.547 E375.63017
G1 X44.924 Y170.08 E375.69231
G1 X44.52 Y169.559 E375.75462
G1 X44.182 Y168.994 E375.81683
G1 X43.916 Y168.392 E375.87903
G1 X43.724 Y167.762 E375.94127
G1 X43.61 Y167.114 E376.00344
G1 X43.575 Y166.5 E376.06156
G1 X43.575 Y56.5 E386.45656
G1 X43.615 Y55.843 E386.51876
G1 X43.734 Y55.195 E386.58102
G1 X43.931 Y54.567 E386.64322
G1 X44.203 Y53.967 E386.70547
G1 X44.545 Y53.404 E386.76773
G1 X44.953 Y52.887 E386.82996
G1 X45.42 Y52.424 E386.89211
G0 F4500 X45.763 Y52.592
G1 F1800 X46.278 Y52.217 E386.95231
G1 X46.835 Y51.91 E387.01241
G1 X47.427 Y51.675 E387.0726
G1 X48.044 Y51.516 E387.13281
G1 X48.676 Y51.435 E387.19303
G1 X49 Y51.425 E387.22366
G1 X174 Y51.425 E399.03616
G1 X174.636 Y51.465 E399.09638
G1 X175.261 Y51.584 E399.1565
G1 X175.867 Y51.781 E399.21672
G1 X176.443 Y52.052 E399.27688
G1 X176.981 Y52.393 E399.33707
G1 X177.472 Y52.799 E399.39728
G1 X177.908 Y53.263 E399.45745
G1 X178.283 Y53.778 E399.51765
G1 X178.59 Y54.335 E399.57775
G1 X178.825 Y54.927 E399.63794
G1 X178.984 Y55.544 E399.69815
G1 X179.065 Y56.176 E399.75836
G1 X179.075 Y56.5 E399.789
G1 X179.075 Y166.5 E410.184
G1 X179.035 Y167.136 E410.24422
