;FLAVOR:UltiGCode
;TIME:24039
;MATERIAL:40154
;MATERIAL2:0
;NOZZLE_DIAMETER:0.4
;MINX:28.177
;MINY:48.65
;MINZ:0.27
;MAXX:193.404
;MAXY:174.349
;MAXZ:28.17
;Generated with Cura_SteamEngine master
M82 ;absolute extrusion mode

G92 E0
G92 E0
G10
;LAYER_COUNT:187
;LAYER:0
M107
G0 F4500 X31.814 Y49.954 Z0.27
;TYPE:SKIRT
G11
G1 F1800 X32.498 Y49.551 E0.07502
G1 X33.218 Y49.218 E0.14999
G1 X33.968 Y48.96 E0.22494
G1 X34.741 Y48.778 E0.29998
G1 X35.527 Y48.675 E0.3749
G1 X36.155 Y48.65 E0.43429
G1 X160.9 Y48.65 E12.22269
G1 X161.692 Y48.69 E12.29763
G1 X162.477 Y48.809 E12.37266
G1 X163.245 Y49.007 E12.44761
G1 X163.99 Y49.282 E12.52266
G1 X164.703 Y49.629 E12.59759
G1 X165.378 Y50.047 E12.67262
G1 X166.007 Y50.53 E12.74756
G1 X166.584 Y51.075 E12.82257
G1 X167.104 Y51.674 E12.89753
G1 X167.56 Y52.323 E12.97248
G1 X167.949 Y53.015 E13.0475
G1 X168.267 Y53.742 E13.12249
G1 X168.51 Y54.498 E13.19753
G1 X168.675 Y55.274 E13.2725
G1 X168.761 Y56.062 E13.34741
G1 X168.775 Y56.518 E13.39052
G1 X168.817 Y101.522 E17.6434
G1 X168.88 Y101.515 E17.64939
G1 X169.35 Y101.501 E17.69382
G1 X185.09 Y101.501 E19.18125
G1 X185.882 Y101.541 E19.25619
G1 X186.667 Y101.66 E19.33122
G1 X187.435 Y101.858 E19.40617
G1 X188.18 Y102.133 E19.48122
G1 X188.893 Y102.48 E19.55615
G1 X189.568 Y102.898 E19.63118
G1 X190.197 Y103.381 E19.70612
G1 X190.626 Y103.776 E19.76123
G1 X191.065 Y104.21 E19.81957
G1 X191.601 Y104.795 E19.89455
G1 X192.075 Y105.432 E19.96958
G1 X192.482 Y106.113 E20.04455
G1 X192.819 Y106.831 E20.11951
G1 X193.082 Y107.58 E20.19452
G1 X193.268 Y108.351 E20.26947
G1 X193.375 Y109.137 E20.34443
G1 X193.404 Y109.81 E20.40809
G1 X193.404 Y112.974 E20.70709
G1 X193.364 Y113.766 E20.78203
G1 X193.245 Y114.551 E20.85706
G1 X193.047 Y115.319 E20.93201
G1 X192.772 Y116.064 E21.00705
G1 X192.425 Y116.777 E21.08199
G1 X192.007 Y117.452 E21.15702
G1 X191.524 Y118.081 E21.23196
G1 X190.979 Y118.658 E21.30696
G1 X190.932 Y118.699 E21.31286
G1 X190.932 Y119.199 E21.36011
G1 X190.892 Y119.991 E21.43505
G1 X190.773 Y120.776 E21.51008
G1 X190.575 Y121.544 E21.58503
G1 X190.3 Y122.289 E21.66007
G1 X189.953 Y123.002 E21.73501
G1 X189.535 Y123.677 E21.81003
G1 X189.052 Y124.306 E21.88498
G1 X188.673 Y124.72 E21.93802
G1 X188.557 Y124.838 E21.95366
G1 X187.973 Y125.375 E22.02863
G1 X187.338 Y125.85 E22.10357
G1 X186.658 Y126.26 E22.1786
G1 X185.94 Y126.598 E22.2536
G1 X185.192 Y126.863 E22.32859
G1 X184.422 Y127.052 E22.40351
G1 X183.636 Y127.161 E22.4785
G1 X182.946 Y127.192 E22.54377
G1 X169.364 Y127.201 E23.82727
G1 X168.841 Y127.175 E23.87675
G1 X168.878 Y166.364 E27.58012
G1 X168.839 Y167.156 E27.65505
G1 X168.72 Y167.941 E27.73008
G1 X168.523 Y168.709 E27.80501
G1 X168.249 Y169.454 E27.88002
G1 X167.902 Y170.168 E27.95504
G1 X167.485 Y170.843 E28.03002
G1 X167.002 Y171.472 E28.10496
G1 X166.571 Y171.939 E28.16502
G1 X166.468 Y172.042 E28.17878
G1 X165.88 Y172.575 E28.25378
G1 X165.241 Y173.045 E28.32874
G1 X164.557 Y173.448 E28.40376
G1 X163.837 Y173.781 E28.47873
G1 X163.087 Y174.039 E28.55368
G1 X162.314 Y174.221 E28.62872
G1 X161.528 Y174.324 E28.70363
G1 X160.9 Y174.349 E28.76303
G1 X36.155 Y174.349 E40.55143
G1 X35.363 Y174.309 E40.62637
G1 X34.578 Y174.19 E40.7014
G1 X33.81 Y173.992 E40.77635
G1 X33.065 Y173.717 E40.85139
G1 X32.352 Y173.37 E40.92633
G1 X31.677 Y172.952 E41.00136
G1 X31.048 Y172.469 E41.0763
G1 X30.587 Y172.042 E41.13568
G1 X30.484 Y171.939 E41.14945
G1 X29.951 Y171.351 E41.22444
G1 X29.481 Y170.712 E41.2994
G1 X29.078 Y170.028 E41.37443
G1 X28.745 Y169.308 E41.44939
G1 X28.487 Y168.558 E41.52434
G1 X28.305 Y167.785 E41.59939
G1 X28.202 Y166.999 E41.6743
G1 X28.177 Y166.371 E41.73369
G1 X28.177 Y56.628 E52.10441
G1 X28.217 Y55.836 E52.17935
G1 X28.336 Y55.051 E52.25438
G1 X28.534 Y54.283 E52.32933
G1 X28.809 Y53.538 E52.40437
G1 X29.156 Y52.825 E52.47931
G1 X29.574 Y52.15 E52.55433
G1 X30.057 Y51.521 E52.62928
G1 X30.484 Y51.06 E52.68866
G1 X30.587 Y50.957 E52.70242
G1 X31.175 Y50.424 E52.77742
G1 X31.814 Y49.954 E52.85238
G0 F4500 X32.036 Y50.227
G1 F1800 X32.707 Y49.837 E52.92572
G1 X33.413 Y49.517 E52.99897
G1 X34.149 Y49.272 E53.07228
G1 X34.907 Y49.104 E53.14565
G1 X35.677 Y49.015 E53.2189
G1 X36.155 Y49 E53.26409
G1 X160.9 Y49 E65.05249
G1 X161.675 Y49.04 E65.12583
G1 X162.441 Y49.159 E65.19908
G1 X163.191 Y49.357 E65.27239
G1 X163.917 Y49.631 E65.34572
G1 X164.61 Y49.978 E65.41896
G1 X165.264 Y50.395 E65.49225
G1 X165.872 Y50.877 E65.56557
G1 X166.427 Y51.419 E65.63888
G1 X166.924 Y52.015 E65.71222
G1 X167.356 Y52.659 E65.7855
G1 X167.719 Y53.344 E65.85876
G1 X168.011 Y54.063 E65.93209
G1 X168.226 Y54.808 E66.00537
G1 X168.364 Y55.571 E66.07864
G1 X168.425 Y56.518 E66.16832
G1 X168.468 Y101.908 E70.45768
G1 X169.35 Y101.851 E70.5412
G1 X185.09 Y101.851 E72.02863
G1 X185.865 Y101.891 E72.10197
G1 X186.631 Y102.01 E72.17522
G1 X187.381 Y102.208 E72.24852
G1 X188.107 Y102.482 E72.32185
G1 X188.8 Y102.829 E72.39509
G1 X189.454 Y103.246 E72.46839
G1 X190.062 Y103.728 E72.54171
G1 X190.38 Y104.025 E72.58283
G1 X190.819 Y104.459 E72.64117
G1 X191.342 Y105.032 E72.71448
G1 X191.803 Y105.655 E72.78772
G1 X192.197 Y106.323 E72.86101
G1 X192.521 Y107.028 E72.93433
G1 X192.77 Y107.763 E73.00766
G1 X192.942 Y108.519 E73.08093
G1 X193.036 Y109.289 E73.15424
G1 X193.054 Y109.81 E73.2035
G1 X193.054 Y112.974 E73.5025
G1 X193.014 Y113.749 E73.57583
G1 X192.895 Y114.515 E73.64909
G1 X192.697 Y115.265 E73.72239
G1 X192.423 Y115.991 E73.79572
G1 X192.076 Y116.684 E73.86896
G1 X191.659 Y117.338 E73.94226
G1 X191.177 Y117.946 E74.01558
G1 X190.635 Y118.501 E74.08889
G1 X190.582 Y118.545 E74.0954
G1 X190.582 Y119.199 E74.1572
G1 X190.542 Y119.974 E74.23054
G1 X190.423 Y120.74 E74.30379
G1 X190.225 Y121.49 E74.37709
G1 X189.951 Y122.216 E74.45042
G1 X189.604 Y122.909 E74.52366
G1 X189.187 Y123.563 E74.59696
G1 X188.705 Y124.171 E74.67028
G1 X188.423 Y124.474 E74.7094
G1 X188.307 Y124.592 E74.72503
G1 X187.736 Y125.117 E74.79834
G1 X187.113 Y125.579 E74.87163
G1 X186.446 Y125.976 E74.94498
G1 X185.742 Y126.301 E75.01826
G1 X185.009 Y126.552 E75.09147
G1 X184.253 Y126.727 E75.16481
G1 X183.483 Y126.822 E75.23812
G1 X182.946 Y126.842 E75.2889
G1 X169.364 Y126.851 E76.5724
G1 X168.589 Y126.812 E76.64573
G1 X168.491 Y126.797 E76.6551
G1 X168.528 Y166.364 E80.39419
G1 X168.489 Y167.139 E80.46752
G1 X168.37 Y167.905 E80.54077
G1 X168.173 Y168.655 E80.61405
G1 X167.9 Y169.381 E80.68735
G1 X167.553 Y170.075 E80.76067
G1 X167.137 Y170.73 E80.834
G1 X166.656 Y171.338 E80.90726
G1 X166.324 Y171.692 E80.95312
G1 X166.221 Y171.795 E80.96689
G1 X165.645 Y172.314 E81.04016
G1 X165.019 Y172.772 E81.11346
G1 X164.348 Y173.162 E81.1868
G1 X163.642 Y173.482 E81.26005
G1 X162.906 Y173.727 E81.33335
G1 X162.148 Y173.895 E81.40672
G1 X161.378 Y173.984 E81.47997
G1 X160.9 Y173.999 E81.52516
G1 X36.155 Y173.999 E93.31357
G1 X35.38 Y173.959 E93.3869
G1 X34.614 Y173.84 E93.46016
G1 X33.864 Y173.642 E93.53346
G1 X33.138 Y173.368 E93.60679
G1 X32.445 Y173.021 E93.68003
G1 X31.791 Y172.604 E93.75333
G1 X31.183 Y172.122 E93.82665
G1 X30.834 Y171.795 E93.87184
G1 X30.731 Y171.692 E93.88561
G1 X30.212 Y171.116 E93.95888
G1 X29.754 Y170.49 E94.03218
G1 X29.364 Y169.819 E94.10552
G1 X29.044 Y169.113 E94.17877
G1 X28.799 Y168.377 E94.25207
G1 X28.631 Y167.619 E94.32544
G1 X28.542 Y166.849 E94.39869
G1 X28.527 Y166.371 E94.44389
G1 X28.527 Y56.628 E104.8146
G1 X28.567 Y55.853 E104.88793
G1 X28.686 Y55.087 E104.96119
G1 X28.884 Y54.337 E105.03449
G1 X29.158 Y53.611 E105.10782
G1 X29.505 Y52.918 E105.18106
G1 X29.922 Y52.264 E105.25436
G1 X30.404 Y51.656 E105.32768
G1 X30.731 Y51.307 E105.37288
G1 X30.834 Y51.204 E105.38664
G1 X31.41 Y50.685 E105.45991
G1 X32.036 Y50.227 E105.53321
G0 F4500 X32.258 Y50.501
G1 F1800 X32.915 Y50.123 E105.60484
G1 X33.607 Y49.817 E105.67634
G1 X34.329 Y49.586 E105.74798
G1 X35.07 Y49.432 E105.8195
G1 X36.155 Y49.35 E105.92232
G1 X160.9 Y49.35 E117.71072
G1 X161.656 Y49.39 E117.78227
G1 X162.404 Y49.509 E117.85384
G1 X163.135 Y49.707 E117.92541
G1 X163.842 Y49.981 E117.99706
G1 X164.515 Y50.327 E118.06858
G1 X165.148 Y50.743 E118.14016
G1 X165.734 Y51.223 E118.21174
G1 X166.266 Y51.762 E118.28331
G1 X166.738 Y52.354 E118.35485
G1 X167.145 Y52.993 E118.42645
G1 X167.483 Y53.671 E118.49804
G1 X167.747 Y54.38 E118.56953
G1 X167.935 Y55.114 E118.64114
G1 X168.044 Y55.863 E118.71266
G1 X168.075 Y56.518 E118.77463
G1 X168.118 Y102.315 E123.10245
G1 X168.682 Y102.232 E123.15632
G1 X169.35 Y102.201 E123.21951
G1 X185.09 Y102.201 E124.70694
G1 X185.846 Y102.241 E124.77849
G1 X186.594 Y102.36 E124.85006
G1 X187.325 Y102.558 E124.92163
G1 X188.032 Y102.832 E124.99328
G1 X188.705 Y103.178 E125.06479
G1 X189.338 Y103.594 E125.13637
G1 X190.134 Y104.274 E125.23531
G1 X190.573 Y104.708 E125.29364
G1 X191.083 Y105.268 E125.36522
G1 X191.531 Y105.878 E125.43674
G1 X191.912 Y106.533 E125.50835
G1 X192.222 Y107.224 E125.57992
G1 X192.457 Y107.944 E125.65149
G1 X192.615 Y108.685 E125.72309
G1 X192.704 Y109.81 E125.82973
G1 X192.704 Y112.974 E126.12873
G1 X192.664 Y113.73 E126.20027
G1 X192.545 Y114.478 E126.27185
G1 X192.347 Y115.209 E126.34342
G1 X192.073 Y115.916 E126.41507
G1 X191.727 Y116.589 E126.48658
G1 X191.311 Y117.222 E126.55816
G1 X190.831 Y117.808 E126.62975
G1 X190.292 Y118.34 E126.70131
G1 X190.232 Y118.388 E126.70857
G1 X190.232 Y119.199 E126.78521
G1 X190.192 Y119.955 E126.85676
G1 X190.073 Y120.703 E126.92833
G1 X189.875 Y121.434 E126.9999
G1 X189.601 Y122.141 E127.07155
G1 X189.255 Y122.814 E127.14306
G1 X188.839 Y123.447 E127.21464
G1 X188.174 Y124.229 E127.31165
G1 X188.058 Y124.347 E127.32729
G1 X187.499 Y124.858 E127.39886
G1 X186.889 Y125.308 E127.47049
G1 X186.236 Y125.691 E127.54203
G1 X185.546 Y126.002 E127.61355
G1 X184.827 Y126.24 E127.68512
G1 X184.086 Y126.4 E127.75676
G1 X183.333 Y126.481 E127.82833
G1 X182.946 Y126.492 E127.86492
G1 X169.364 Y126.501 E129.14842
G1 X168.607 Y126.462 E129.22005
G1 X168.141 Y126.388 E129.26464
G1 X168.178 Y166.364 E133.04237
G1 X168.139 Y167.121 E133.114
G1 X168.02 Y167.869 E133.18558
G1 X167.823 Y168.6 E133.25712
G1 X167.55 Y169.306 E133.32865
G1 X167.204 Y169.98 E133.40025
G1 X166.789 Y170.614 E133.47186
G1 X166.076 Y171.444 E133.57526
G1 X165.973 Y171.547 E133.58902
G1 X165.41 Y172.054 E133.66062
G1 X164.797 Y172.498 E133.73215
G1 X164.14 Y172.876 E133.80378
G1 X163.448 Y173.182 E133.87528
G1 X162.726 Y173.413 E133.94691
G1 X161.985 Y173.567 E134.01843
G1 X160.9 Y173.649 E134.12126
G1 X36.155 Y173.649 E145.90966
G1 X35.399 Y173.609 E145.9812
G1 X34.651 Y173.49 E146.05278
G1 X33.92 Y173.292 E146.12435
G1 X33.213 Y173.018 E146.196
G1 X32.54 Y172.672 E146.26751
G1 X31.907 Y172.256 E146.33909
G1 X31.082 Y171.547 E146.44189
G1 X30.979 Y171.444 E146.45565
G1 X30.472 Y170.881 E146.52725
G1 X30.028 Y170.268 E146.59878
G1 X29.65 Y169.611 E146.67041
G1 X29.344 Y168.919 E146.74191
G1 X29.113 Y168.197 E146.81355
G1 X28.959 Y167.456 E146.88507
G1 X28.877 Y166.371 E146.98789
G1 X28.877 Y56.628 E157.35861
G1 X28.917 Y55.872 E157.43015
G1 X29.036 Y55.124 E157.50172
G1 X29.234 Y54.393 E157.57329
G1 X29.508 Y53.686 E157.64494
G1 X29.854 Y53.013 E157.71646
G1 X30.27 Y52.38 E157.78804
G1 X30.979 Y51.555 E157.89083
G1 X31.082 Y51.452 E157.9046
G1 X31.645 Y50.945 E157.97619
G1 X32.258 Y50.501 E158.04772
G0 F4500 X32.479 Y50.775
G1 F1800 X33.122 Y50.411 E158.11755
G1 X33.8 Y50.119 E158.18731
G1 X34.506 Y49.902 E158.2571
G1 X35.232 Y49.763 E158.32696
G1 X36.155 Y49.7 E158.41438
G1 X160.9 Y49.7 E170.20279
G1 X161.638 Y49.74 E170.27263
G1 X162.366 Y49.859 E170.34234
G1 X163.078 Y50.057 E170.41218
G1 X163.764 Y50.33 E170.48195
G1 X164.417 Y50.676 E170.55178
G1 X165.029 Y51.09 E170.62161
G1 X165.592 Y51.568 E170.6914
G1 X166.1 Y52.104 E170.76119
G1 X166.547 Y52.692 E170.83099
G1 X166.928 Y53.325 E170.9008
G1 X167.239 Y53.995 E170.97061
G1 X167.475 Y54.695 E171.04042
G1 X167.634 Y55.416 E171.11019
G1 X167.725 Y56.519 E171.21478
G1 X167.768 Y102.747 E175.58332
G1 X168.235 Y102.643 E175.62854
G1 X168.969 Y102.562 E175.69832
G1 X169.35 Y102.551 E175.73434
G1 X185.09 Y102.551 E177.22177
G1 X185.828 Y102.591 E177.29161
G1 X186.556 Y102.71 E177.36132
G1 X187.268 Y102.908 E177.43116
G1 X187.954 Y103.181 E177.50093
G1 X188.607 Y103.527 E177.57077
G1 X189.219 Y103.941 E177.64059
G1 X189.888 Y104.522 E177.72432
G1 X190.327 Y104.956 E177.78266
G1 X190.824 Y105.503 E177.8525
G1 X191.258 Y106.101 E177.92233
G1 X191.625 Y106.742 E177.99213
G1 X191.921 Y107.418 E178.06187
G1 X192.142 Y108.123 E178.13168
G1 X192.286 Y108.848 E178.20154
G1 X192.354 Y109.81 E178.29267
G1 X192.354 Y112.974 E178.59167
G1 X192.314 Y113.712 E178.66151
G1 X192.195 Y114.44 E178.73122
G1 X191.997 Y115.152 E178.80106
G1 X191.724 Y115.838 E178.87083
G1 X191.378 Y116.491 E178.94067
G1 X190.964 Y117.103 E179.01049
G1 X190.486 Y117.666 E179.08028
G1 X189.95 Y118.174 E179.15007
G1 X189.882 Y118.226 E179.15816
G1 X189.882 Y119.199 E179.25011
G1 X189.842 Y119.937 E179.31995
G1 X189.723 Y120.665 E179.38966
G1 X189.525 Y121.377 E179.4595
G1 X189.252 Y122.063 E179.52927
G1 X188.906 Y122.716 E179.59911
G1 X188.492 Y123.328 E179.66893
G1 X187.924 Y123.984 E179.75093
G1 X187.808 Y124.102 E179.76657
G1 X187.263 Y124.6 E179.83633
G1 X186.666 Y125.036 E179.90619
G1 X186.027 Y125.405 E179.97592
G1 X185.351 Y125.703 E180.04574
G1 X184.646 Y125.926 E180.11561
G1 X183.922 Y126.071 E180.18539
G1 X182.946 Y126.142 E180.27787
G1 X169.364 Y126.151 E181.56136
G1 X168.626 Y126.112 E181.6312
G1 X167.897 Y125.993 E181.70101
G1 X167.79 Y125.963 E181.71151
G1 X167.828 Y166.365 E185.5295
G1 X167.789 Y167.102 E185.59924
G1 X167.67 Y167.831 E185.66904
G1 X167.473 Y168.543 E185.73886
G1 X167.2 Y169.23 E185.80872
G1 X166.855 Y169.883 E185.87851
G1 X166.441 Y170.495 E185.94833
G1 X165.829 Y171.197 E186.03634
G1 X165.726 Y171.3 E186.05011
G1 X165.176 Y171.793 E186.1199
G1 X164.576 Y172.224 E186.18972
G1 X163.933 Y172.588 E186.25954
G1 X163.255 Y172.88 E186.3293
G1 X162.549 Y173.097 E186.3991
G1 X161.823 Y173.236 E186.46895
G1 X160.9 Y173.299 E186.55638
G1 X36.155 Y173.299 E198.34478
G1 X35.417 Y173.259 E198.41462
G1 X34.689 Y173.14 E198.48433
G1 X33.977 Y172.942 E198.55417
G1 X33.291 Y172.669 E198.62394
G1 X32.638 Y172.323 E198.69378
G1 X32.026 Y171.909 E198.7636
G1 X31.329 Y171.3 E198.85107
G1 X31.226 Y171.197 E198.86483
G1 X30.733 Y170.647 E198.93463
G1 X30.302 Y170.047 E199.00445
G1 X29.938 Y169.404 E199.07427
G1 X29.646 Y168.726 E199.14403
G1 X29.429 Y168.02 E199.21383
G1 X29.29 Y167.294 E199.28368
G1 X29.227 Y166.371 E199.37111
G1 X29.227 Y56.628 E209.74182
G1 X29.267 Y55.89 E209.81166
G1 X29.386 Y55.162 E209.88137
G1 X29.584 Y54.45 E209.95121
G1 X29.857 Y53.764 E210.02098
G1 X30.203 Y53.111 E210.09082
G1 X30.617 Y52.499 E210.16064
G1 X31.226 Y51.802 E210.24811
G1 X31.329 Y51.699 E210.26187
G1 X31.879 Y51.206 E210.33167
G1 X32.479 Y50.775 E210.40149
G0 F4500 X32.699 Y51.05
G1 F1800 X33.328 Y50.7 E210.46951
G1 X33.991 Y50.422 E210.53745
G1 X34.682 Y50.22 E210.60548
G1 X35.39 Y50.095 E210.67342
G1 X36.155 Y50.05 E210.74584
G1 X160.9 Y50.05 E222.53424
G1 X161.618 Y50.09 E222.6022
G1 X162.328 Y50.209 E222.67023
G1 X163.02 Y50.407 E222.73825
G1 X163.685 Y50.68 E222.80618
G1 X164.317 Y51.025 E222.87422
G1 X164.906 Y51.438 E222.9422
G1 X165.445 Y51.914 E223.01015
G1 X165.929 Y52.446 E223.07812
G1 X166.35 Y53.029 E223.14608
G1 X166.704 Y53.656 E223.21412
G1 X166.987 Y54.317 E223.28207
G1 X167.194 Y55.006 E223.35006
G1 X167.324 Y55.714 E223.41808
G1 X167.375 Y56.519 E223.4943
G1 X167.419 Y103.206 E227.90623
G1 X167.825 Y103.083 E227.94632
G1 X168.533 Y102.953 E228.01434
G1 X169.35 Y102.901 E228.0917
G1 X185.09 Y102.901 E229.57913
G1 X185.808 Y102.941 E229.64709
G1 X186.518 Y103.06 E229.71512
G1 X187.21 Y103.258 E229.78314
G1 X187.875 Y103.531 E229.85107
G1 X188.507 Y103.876 E229.91911
G1 X189.096 Y104.289 E229.9871
G1 X189.642 Y104.771 E230.05592
G1 X190.081 Y105.205 E230.11426
G1 X190.564 Y105.739 E230.1823
G1 X190.985 Y106.322 E230.25026
G1 X191.338 Y106.949 E230.31825
G1 X191.619 Y107.611 E230.38621
G1 X191.826 Y108.301 E230.45429
G1 X191.954 Y109.008 E230.52219
