;FLAVOR:UltiGCode
;TIME:34545
;MATERIAL:57496
;MATERIAL2:0
;NOZZLE_DIAMETER:0.4
;MINX:46.703
;MINY:46.553
;MINZ:0.27
;MAXX:188.321
;MAXY:172.254
;MAXZ:66.72
;Generated with Cura_SteamEngine master
M82 ;absolute extrusion mode

G92 E0
G92 E0
G10
;LAYER_COUNT:444
;LAYER:0
M107
G0 F4500 X49.928 Y48.964 Z0.27
;TYPE:SKIRT
G11
G1 F1800 X50.031 Y48.861 E0.01377
G1 X50.619 Y48.328 E0.08876
G1 X51.258 Y47.858 E0.16372
G1 X51.942 Y47.455 E0.23875
G1 X52.662 Y47.122 E0.31371
G1 X53.412 Y46.864 E0.38866
G1 X54.185 Y46.682 E0.46371
G1 X54.971 Y46.579 E0.53862
G1 X55.599 Y46.554 E0.59801
G1 X179.053 Y46.553 E12.26442
G1 X179.059 Y46.553 E12.26498
G1 X180.35 Y46.554 E12.38698
G1 X181.143 Y46.595 E12.46202
G1 X181.927 Y46.715 E12.53697
G1 X182.695 Y46.913 E12.61192
G1 X183.44 Y47.188 E12.68697
G1 X184.152 Y47.536 E12.76186
G1 X184.827 Y47.954 E12.83689
G1 X185.456 Y48.438 E12.91189
G1 X185.94 Y48.888 E12.97434
G1 X186.042 Y48.991 E12.98804
G1 X186.571 Y49.582 E13.06299
G1 X187.038 Y50.223 E13.13794
G1 X187.438 Y50.909 E13.21298
G1 X187.767 Y51.631 E13.28796
G1 X188.022 Y52.382 E13.36291
G1 X188.2 Y53.155 E13.43787
G1 X188.299 Y53.943 E13.51292
G1 X188.321 Y54.532 E13.56862
G1 X188.321 Y164.274 E23.93924
G1 X188.281 Y165.066 E24.01418
G1 X188.162 Y165.851 E24.08921
G1 X187.964 Y166.619 E24.16416
G1 X187.689 Y167.364 E24.2392
G1 X187.342 Y168.077 E24.31414
G1 X186.924 Y168.752 E24.38916
G1 X186.441 Y169.381 E24.46411
G1 X186.042 Y169.815 E24.51982
G1 X185.94 Y169.918 E24.53352
G1 X185.354 Y170.453 E24.6085
G1 X184.717 Y170.926 E24.68348
G1 X184.035 Y171.333 E24.75853
G1 X183.317 Y171.669 E24.83345
G1 X182.568 Y171.932 E24.90846
G1 X181.796 Y172.117 E24.98348
G1 X181.01 Y172.224 E25.05844
G1 X180.346 Y172.252 E25.12125
G1 X172.121 Y172.254 E25.89851
G1 X55.599 Y172.254 E36.90984
G1 X54.807 Y172.214 E36.98478
G1 X54.022 Y172.095 E37.05981
G1 X53.254 Y171.897 E37.13476
G1 X52.509 Y171.622 E37.2098
G1 X51.796 Y171.275 E37.28474
G1 X51.121 Y170.857 E37.35977
G1 X50.492 Y170.374 E37.43471
G1 X50.031 Y169.947 E37.49409
G1 X49.928 Y169.844 E37.50786
G1 X49.395 Y169.256 E37.58285
G1 X48.925 Y168.617 E37.65781
G1 X48.522 Y167.933 E37.73284
G1 X48.189 Y167.213 E37.8078
G1 X47.931 Y166.463 E37.88275
G1 X47.749 Y165.69 E37.9578
G1 X47.646 Y164.904 E38.03271
G1 X47.621 Y164.276 E38.0921
G1 X47.621 Y54.532 E48.46291
G1 X47.661 Y53.74 E48.53785
G1 X47.78 Y52.955 E48.61288
G1 X47.978 Y52.187 E48.68783
G1 X48.253 Y51.442 E48.76288
G1 X48.6 Y50.729 E48.83781
G1 X49.018 Y50.054 E48.91284
G1 X49.501 Y49.425 E48.98778
G1 X49.928 Y48.964 E49.04716
G0 F4500 X50.175 Y49.211
G1 F1800 X50.278 Y49.108 E49.06093
G1 X50.854 Y48.589 E49.1342
G1 X51.48 Y48.131 E49.2075
G1 X52.151 Y47.741 E49.28084
G1 X52.857 Y47.421 E49.35409
G1 X53.593 Y47.176 E49.42739
G1 X54.351 Y47.008 E49.50076
G1 X55.121 Y46.919 E49.57401
G1 X55.599 Y46.904 E49.6192
G1 X179.053 Y46.903 E61.28561
G1 X179.059 Y46.903 E61.28617
G1 X180.35 Y46.904 E61.40817
G1 X181.124 Y46.945 E61.48142
G1 X181.891 Y47.065 E61.55478
G1 X182.641 Y47.263 E61.62809
G1 X183.366 Y47.537 E61.70133
G1 X184.059 Y47.885 E61.77461
G1 X184.713 Y48.302 E61.84791
G1 X185.321 Y48.785 E61.92129
G1 X185.691 Y49.134 E61.96935
G1 X185.793 Y49.237 E61.98305
G1 X186.31 Y49.816 E62.0564
G1 X186.764 Y50.444 E62.12963
G1 X187.151 Y51.116 E62.20292
G1 X187.467 Y51.825 E62.27627
G1 X187.708 Y52.562 E62.34954
G1 X187.873 Y53.32 E62.42285
G1 X187.958 Y54.091 E62.49615
G1 X187.971 Y54.532 E62.53785
G1 X187.971 Y164.274 E72.90847
G1 X187.931 Y165.049 E72.9818
G1 X187.812 Y165.815 E73.05506
G1 X187.614 Y166.565 E73.12836
G1 X187.34 Y167.291 E73.20169
G1 X186.993 Y167.984 E73.27493
G1 X186.576 Y168.638 E73.34823
G1 X186.094 Y169.246 E73.42155
G1 X185.793 Y169.569 E73.46327
G1 X185.691 Y169.672 E73.47697
G1 X185.117 Y170.194 E73.55029
G1 X184.493 Y170.655 E73.6236
G1 X183.825 Y171.048 E73.69684
G1 X183.12 Y171.371 E73.77012
G1 X182.385 Y171.62 E73.84346
G1 X181.629 Y171.792 E73.91673
G1 X180.859 Y171.884 E73.99001
G1 X180.346 Y171.902 E74.03852
G1 X172.121 Y171.904 E74.81578
G1 X55.599 Y171.904 E85.82711
G1 X54.824 Y171.864 E85.90044
G1 X54.058 Y171.745 E85.9737
G1 X53.308 Y171.547 E86.047
G1 X52.582 Y171.273 E86.12033
G1 X51.889 Y170.926 E86.19357
G1 X51.235 Y170.509 E86.26687
G1 X50.627 Y170.027 E86.34019
G1 X50.278 Y169.7 E86.38539
G1 X50.175 Y169.597 E86.39915
G1 X49.656 Y169.021 E86.47242
G1 X49.198 Y168.395 E86.54572
G1 X48.808 Y167.724 E86.61906
G1 X48.488 Y167.018 E86.69231
G1 X48.243 Y166.282 E86.76562
G1 X48.075 Y165.524 E86.83899
G1 X47.986 Y164.754 E86.91223
G1 X47.971 Y164.276 E86.95743
G1 X47.971 Y54.532 E97.32824
G1 X48.011 Y53.757 E97.40157
G1 X48.13 Y52.991 E97.47483
G1 X48.328 Y52.241 E97.54813
G1 X48.602 Y51.515 E97.62146
G1 X48.949 Y50.822 E97.6947
G1 X49.366 Y50.168 E97.768
G1 X49.848 Y49.56 E97.84132
G1 X50.175 Y49.211 E97.88651
G0 F4500 X50.423 Y49.459
G1 F1800 X50.526 Y49.356 E97.90028
G1 X51.089 Y48.849 E97.97188
G1 X51.702 Y48.405 E98.0434
G1 X52.359 Y48.027 E98.11503
G1 X53.051 Y47.721 E98.18653
G1 X53.773 Y47.49 E98.25817
G1 X54.514 Y47.336 E98.32969
G1 X55.599 Y47.254 E98.43252
G1 X179.053 Y47.253 E110.09892
G1 X179.059 Y47.253 E110.09949
G1 X180.35 Y47.254 E110.22149
G1 X181.106 Y47.295 E110.29303
G1 X181.854 Y47.415 E110.36462
G1 X182.585 Y47.613 E110.43619
G1 X183.291 Y47.887 E110.50776
G1 X183.964 Y48.234 E110.57931
G1 X184.597 Y48.65 E110.65089
G1 X185.442 Y49.38 E110.75641
G1 X185.544 Y49.483 E110.77011
G1 X186.048 Y50.049 E110.84173
G1 X186.489 Y50.664 E110.91325
G1 X186.863 Y51.323 E110.98485
G1 X187.166 Y52.017 E111.05641
G1 X187.393 Y52.74 E111.12803
G1 X187.544 Y53.482 E111.19958
G1 X187.621 Y54.532 E111.29907
G1 X187.621 Y164.274 E121.66969
G1 X187.581 Y165.03 E121.74123
G1 X187.462 Y165.778 E121.81281
G1 X187.264 Y166.509 E121.88438
G1 X186.99 Y167.216 E121.95603
G1 X186.644 Y167.889 E122.02754
G1 X186.228 Y168.522 E122.09912
G1 X185.544 Y169.323 E122.19866
G1 X185.442 Y169.426 E122.21236
G1 X184.882 Y169.935 E122.28387
G1 X184.27 Y170.382 E122.35549
G1 X183.616 Y170.763 E122.42702
G1 X182.924 Y171.072 E122.49863
G1 X182.204 Y171.307 E122.57021
G1 X181.463 Y171.464 E122.64179
G1 X180.346 Y171.552 E122.74767
G1 X172.121 Y171.554 E123.52493
G1 X55.599 Y171.554 E134.53626
G1 X54.843 Y171.514 E134.6078
G1 X54.095 Y171.395 E134.67938
G1 X53.364 Y171.197 E134.75095
G1 X52.657 Y170.923 E134.8226
G1 X51.984 Y170.577 E134.89411
G1 X51.351 Y170.161 E134.96569
G1 X50.526 Y169.452 E135.06849
G1 X50.423 Y169.349 E135.08225
G1 X49.916 Y168.786 E135.15385
G1 X49.472 Y168.173 E135.22538
G1 X49.094 Y167.516 E135.29701
G1 X48.788 Y166.824 E135.36851
G1 X48.557 Y166.102 E135.44014
G1 X48.403 Y165.361 E135.51167
G1 X48.321 Y164.276 E135.61449
G1 X48.321 Y54.532 E145.9853
G1 X48.361 Y53.776 E146.05684
G1 X48.48 Y53.028 E146.12842
G1 X48.678 Y52.297 E146.19998
G1 X48.952 Y51.59 E146.27164
G1 X49.298 Y50.917 E146.34315
G1 X49.714 Y50.284 E146.41473
G1 X50.423 Y49.459 E146.51753
G0 F4500 X50.67 Y49.706
G1 F1800 X50.773 Y49.603 E146.53129
G1 X51.323 Y49.11 E146.60109
G1 X51.923 Y48.679 E146.6709
G1 X52.566 Y48.315 E146.74073
G1 X53.244 Y48.023 E146.81049
G1 X53.95 Y47.806 E146.88028
G1 X54.676 Y47.667 E146.95014
G1 X55.599 Y47.604 E147.03756
G1 X179.053 Y47.603 E158.70397
G1 X179.058 Y47.603 E158.70444
G1 X180.349 Y47.604 E158.82644
G1 X181.087 Y47.645 E158.89629
G1 X181.816 Y47.765 E158.96611
G1 X182.527 Y47.963 E159.03585
G1 X183.213 Y48.236 E159.10562
G1 X183.866 Y48.583 E159.1755
G1 X184.477 Y48.998 E159.2453
G1 X185.193 Y49.627 E159.33536
G1 X185.295 Y49.73 E159.34906
G1 X185.786 Y50.282 E159.41888
G1 X186.214 Y50.884 E159.48868
G1 X186.575 Y51.528 E159.55845
G1 X186.863 Y52.208 E159.62823
G1 X187.077 Y52.916 E159.69813
G1 X187.213 Y53.642 E159.76793
G1 X187.271 Y54.532 E159.85221
G1 X187.271 Y164.274 E170.22283
G1 X187.231 Y165.012 E170.29267
G1 X187.112 Y165.74 E170.36238
G1 X186.914 Y166.452 E170.43222
G1 X186.641 Y167.138 E170.50199
G1 X186.295 Y167.791 E170.57183
G1 X185.881 Y168.403 E170.64165
G1 X185.295 Y169.076 E170.72598
G1 X185.193 Y169.179 E170.73968
G1 X184.646 Y169.675 E170.80946
G1 X184.048 Y170.109 E170.87928
G1 X183.407 Y170.476 E170.94908
G1 X182.73 Y170.771 E171.01887
G1 X182.025 Y170.992 E171.08869
G1 X181.3 Y171.135 E171.15852
G1 X180.346 Y171.202 E171.2489
G1 X172.121 Y171.204 E172.02616
G1 X55.599 Y171.204 E183.03749
G1 X54.861 Y171.164 E183.10733
G1 X54.133 Y171.045 E183.17704
G1 X53.421 Y170.847 E183.24688
G1 X52.735 Y170.574 E183.31665
G1 X52.082 Y170.228 E183.38648
G1 X51.47 Y169.814 E183.45631
G1 X50.773 Y169.205 E183.54378
G1 X50.67 Y169.102 E183.55754
G1 X50.177 Y168.552 E183.62734
G1 X49.746 Y167.952 E183.69715
G1 X49.382 Y167.309 E183.76698
G1 X49.09 Y166.631 E183.83674
G1 X48.873 Y165.925 E183.90653
G1 X48.734 Y165.199 E183.97639
G1 X48.671 Y164.276 E184.06381
G1 X48.671 Y54.532 E194.43462
G1 X48.711 Y53.794 E194.50446
G1 X48.83 Y53.066 E194.57417
G1 X49.028 Y52.354 E194.64401
G1 X49.301 Y51.668 E194.71378
G1 X49.647 Y51.015 E194.78362
G1 X50.061 Y50.403 E194.85344
G1 X50.67 Y49.706 E194.94091
G0 F4500 X50.917 Y49.953
G1 F1800 X51.02 Y49.85 E194.95467
G1 X51.557 Y49.371 E195.02268
G1 X52.143 Y48.954 E195.09064
G1 X52.772 Y48.604 E195.15867
G1 X53.435 Y48.326 E195.2266
G1 X54.126 Y48.124 E195.29464
G1 X54.834 Y47.999 E195.36258
G1 X55.599 Y47.954 E195.435
G1 X179.053 Y47.953 E207.1014
G1 X179.058 Y47.953 E207.10187
G1 X180.349 Y47.954 E207.22387
G1 X181.067 Y47.995 E207.29183
G1 X181.777 Y48.114 E207.35986
G1 X182.468 Y48.312 E207.42779
G1 X183.134 Y48.586 E207.49585
G1 X183.765 Y48.931 E207.56381
G1 X184.354 Y49.345 E207.63184
G1 X184.945 Y49.873 E207.70673
G1 X185.047 Y49.976 E207.72043
G1 X185.524 Y50.514 E207.78838
G1 X185.938 Y51.103 E207.85641
G1 X186.285 Y51.733 E207.92438
G1 X186.559 Y52.398 E207.99235
G1 X186.758 Y53.089 E208.0603
G1 X186.879 Y53.799 E208.12836
G1 X186.921 Y54.532 E208.19775
G1 X186.921 Y164.274 E218.56836
G1 X186.881 Y164.992 E218.63632
G1 X186.762 Y165.702 E218.70435
G1 X186.564 Y166.394 E218.77237
G1 X186.291 Y167.059 E218.8403
G1 X185.946 Y167.691 E218.90834
G1 X185.533 Y168.28 E218.97632
G1 X185.047 Y168.83 E219.04568
G1 X184.945 Y168.933 E219.05938
G1 X184.411 Y169.415 E219.12736
G1 X183.827 Y169.835 E219.19534
G1 X183.2 Y170.188 E219.26334
G1 X182.537 Y170.469 E219.33139
G1 X181.848 Y170.675 E219.39934
G1 X181.14 Y170.803 E219.46733
G1 X180.346 Y170.852 E219.54251
G1 X172.121 Y170.854 E220.31977
G1 X55.599 Y170.854 E231.3311
G1 X54.881 Y170.814 E231.39906
G1 X54.171 Y170.695 E231.46709
G1 X53.479 Y170.497 E231.53511
G1 X52.814 Y170.224 E231.60304
G1 X52.182 Y169.879 E231.67108
G1 X51.593 Y169.466 E231.73906
G1 X51.02 Y168.958 E231.81143
G1 X50.917 Y168.855 E231.82519
G1 X50.438 Y168.318 E231.89319
G1 X50.021 Y167.732 E231.96116
G1 X49.671 Y167.103 E232.02918
G1 X49.393 Y166.44 E232.09712
G1 X49.191 Y165.749 E232.16515
G1 X49.066 Y165.041 E232.23309
G1 X49.021 Y164.276 E232.30551
G1 X49.021 Y54.532 E242.67632
G1 X49.061 Y53.814 E242.74428
G1 X49.18 Y53.104 E242.81231
G1 X49.378 Y52.412 E242.88033
G1 X49.651 Y51.747 E242.94826
G1 X49.996 Y51.115 E243.0163
G1 X50.409 Y50.526 E243.08428
G1 X50.917 Y49.953 E243.15665
G0 F4500 X51.165 Y50.201
G1 F1800 X51.268 Y50.098 E243.17041
G1 X51.79 Y49.632 E243.23654
G1 X52.362 Y49.229 E243.30266
G1 X52.976 Y48.894 E243.36876
G1 X53.625 Y48.631 E243.43493
G1 X54.299 Y48.444 E243.50103
G1 X54.99 Y48.334 E243.56715
G1 X55.599 Y48.304 E243.62477
G1 X179.053 Y48.303 E255.29118
G1 X179.058 Y48.303 E255.29165
G1 X180.349 Y48.304 E255.41365
G1 X181.047 Y48.345 E255.47972
G1 X181.737 Y48.464 E255.54589
G1 X182.408 Y48.662 E255.612
G1 X183.052 Y48.935 E255.6781
G1 X183.661 Y49.28 E255.74425
G1 X184.227 Y49.692 E255.8104
G1 X184.696 Y50.119 E255.87034
G1 X184.798 Y50.222 E255.88404
G1 X185.261 Y50.747 E255.95019
G1 X185.662 Y51.321 E256.01636
G1 X185.994 Y51.936 E256.0824
G1 X186.254 Y52.586 E256.14856
G1 X186.438 Y53.261 E256.21467
G1 X186.544 Y53.953 E256.28083
G1 X186.571 Y54.532 E256.33561
G1 X186.571 Y164.274 E266.70623
G1 X186.531 Y164.973 E266.77239
G1 X186.412 Y165.662 E266.83846
G1 X186.214 Y166.333 E266.90458
G1 X185.942 Y166.978 E266.97073
G1 X185.598 Y167.587 E267.03682
G1 X185.186 Y168.153 E267.10298
G1 X184.798 Y168.584 E267.15778
G1 X184.696 Y168.687 E267.17148
G1 X184.176 Y169.155 E267.23759
G1 X183.606 Y169.561 E267.30372
G1 X182.994 Y169.899 E267.36979
G1 X182.347 Y170.165 E267.4359
G1 X181.673 Y170.356 E267.5021
G1 X180.983 Y170.469 E267.56817
G1 X180.345 Y170.502 E267.62855
G1 X172.12 Y170.504 E268.40581
G1 X55.599 Y170.504 E279.41704
G1 X54.9 Y170.464 E279.48321
G1 X54.211 Y170.345 E279.54928
G1 X53.54 Y170.147 E279.61539
G1 X52.895 Y169.875 E279.68154
G1 X52.286 Y169.531 E279.74764
G1 X51.72 Y169.119 E279.8138
G1 X51.268 Y168.71 E279.8714
G1 X51.165 Y168.607 E279.88517
G1 X50.699 Y168.085 E279.95129
G1 X50.296 Y167.513 E280.01742
G1 X49.961 Y166.899 E280.08351
G1 X49.698 Y166.25 E280.14969
G1 X49.511 Y165.576 E280.21579
G1 X49.401 Y164.885 E280.28191
G1 X49.371 Y164.276 E280.33953
G1 X49.371 Y54.532 E290.71034
G1 X49.411 Y53.833 E290.7765
G1 X49.53 Y53.144 E290.84258
G1 X49.728 Y52.473 E290.90869
G1 X50 Y51.828 E290.97484
G1 X50.344 Y51.219 E291.04094
G1 X50.756 Y50.653 E291.10709
G1 X51.165 Y50.201 E291.1647
G0 F4500 X51.412 Y50.448
G1 F1800 X51.515 Y50.345 E291.17846
G1 X52.023 Y49.894 E291.24266
G1 X52.581 Y49.506 E291.30688
G1 X53.18 Y49.185 E291.37111
G1 X53.812 Y48.937 E291.43526
G1 X54.47 Y48.765 E291.49953
G1 X55.143 Y48.672 E291.56374
G1 X55.599 Y48.654 E291.60686
G1 X179.053 Y48.653 E303.27326
G1 X179.057 Y48.653 E303.27364
G1 X180.348 Y48.654 E303.39564
G1 X181.027 Y48.694 E303.45992
G1 X181.695 Y48.814 E303.52406
G1 X182.345 Y49.012 E303.58827
G1 X182.968 Y49.284 E303.65251
G1 X183.554 Y49.628 E303.71672
G1 X184.095 Y50.038 E303.78087
G1 X184.447 Y50.365 E303.82627
G1 X184.549 Y50.468 E303.83997
G1 X184.998 Y50.978 E303.90418
G1 X185.384 Y51.538 E303.96845
G1 X185.702 Y52.138 E304.03263
G1 X185.946 Y52.772 E304.09682
G1 X186.115 Y53.43 E304.16102
G1 X186.205 Y54.104 E304.22528
G1 X186.221 Y54.532 E304.26575
G1 X186.221 Y164.274 E314.63637
G1 X186.181 Y164.952 E314.70056
G1 X186.062 Y165.621 E314.76477
G1 X185.865 Y166.271 E314.82895
G1 X185.593 Y166.894 E314.89319
G1 X185.249 Y167.48 E314.95741
G1 X184.839 Y168.022 E315.02163
G1 X184.549 Y168.338 E315.06216
G1 X184.447 Y168.441 E315.07586
G1 X183.942 Y168.894 E315.13997
G1 X183.386 Y169.286 E315.20426
G1 X182.789 Y169.609 E315.2684
G1 X182.157 Y169.86 E315.33266
G1 X181.501 Y170.035 E315.39682
G1 X180.828 Y170.132 E315.46108
G1 X180.345 Y170.152 E315.50676
G1 X172.12 Y170.154 E316.28402
G1 X55.599 Y170.154 E327.29526
G1 X54.921 Y170.114 E327.35944
G1 X54.252 Y169.995 E327.42365
G1 X53.602 Y169.798 E327.48784
G1 X52.979 Y169.526 E327.55208
G1 X52.393 Y169.182 E327.61629
G1 X51.851 Y168.772 E327.68051
G1 X51.515 Y168.463 E327.72365
G1 X51.412 Y168.36 E327.73742
G1 X50.961 Y167.852 E327.80161
G1 X50.573 Y167.294 E327.86584
G1 X50.252 Y166.695 E327.93006
G1 X50.004 Y166.063 E327.99422
G1 X49.832 Y165.405 E328.05849
G1 X49.739 Y164.732 E328.12269
G1 X49.721 Y164.276 E328.16581
G1 X49.721 Y54.532 E338.53662
G1 X49.761 Y53.854 E338.60081
G1 X49.88 Y53.185 E338.66502
G1 X50.077 Y52.535 E338.7292
G1 X50.349 Y51.912 E338.79344
G1 X50.693 Y51.326 E338.85766
G1 X51.103 Y50.784 E338.92188
G1 X51.412 Y50.448 E338.96502
G0 F4500 X51.66 Y50.696
G1 F1800 X51.763 Y50.593 E338.97878
G1 X52.256 Y50.156 E339.04104
G1 X52.798 Y49.783 E339.10321
G1 X53.382 Y49.478 E339.16548
G1 X53.998 Y49.246 E339.22768
G1 X54.638 Y49.09 E339.28993
G1 X55.599 Y49.004 E339.38111
G1 X179.053 Y49.003 E351.04751
G1 X179.057 Y49.003 E351.04789
G1 X180.348 Y49.004 E351.16989
G1 X181.005 Y49.044 E351.23209
G1 X181.653 Y49.164 E351.29437
G1 X182.281 Y49.362 E351.35659
G1 X182.881 Y49.634 E351.41885
G1 X183.443 Y49.976 E351.48102
G1 X183.96 Y50.385 E351.54331
G1 X184.199 Y50.612 E351.57446
G1 X184.301 Y50.715 E351.58816
G1 X184.735 Y51.21 E351.65037
G1 X185.106 Y51.754 E351.7126
G1 X185.408 Y52.339 E351.77481
G1 X185.637 Y52.956 E351.837
G1 X185.79 Y53.597 E351.89928
