;FLAVOR:UltiGCode
;TIME:21490
;MATERIAL:37138
;MATERIAL2:0
;NOZZLE_DIAMETER:0.4
;MINX:41.13
;MINY:48.624
;MINZ:0.27
;MAXX:181.88
;MAXY:174.375
;MAXZ:26.07
;Generated with Cura_SteamEngine master
M82 ;absolute extrusion mode

G92 E0
G92 E0
G10
;LAYER_COUNT:173
;LAYER:0
M107
G0 F4500 X44.154 Y50.295 Z0.27
;TYPE:SKIRT
G11
G1 F1800 X44.803 Y49.839 E0.07496
G1 X45.495 Y49.45 E0.14997
G1 X46.222 Y49.132 E0.22496
G1 X46.978 Y48.889 E0.3
G1 X47.754 Y48.724 E0.37497
G1 X48.542 Y48.638 E0.44988
G1 X49.005 Y48.624 E0.49366
G1 X174.005 Y48.624 E12.30616
G1 X174.797 Y48.664 E12.38109
G1 X175.582 Y48.783 E12.45612
G1 X176.35 Y48.981 E12.53107
G1 X177.095 Y49.256 E12.60612
G1 X177.808 Y49.603 E12.68105
G1 X178.483 Y50.021 E12.75608
G1 X179.112 Y50.504 E12.83102
G1 X179.689 Y51.049 E12.90603
G1 X180.209 Y51.648 E12.98099
G1 X180.665 Y52.297 E13.05594
G1 X181.054 Y52.989 E13.13096
G1 X181.372 Y53.716 E13.20595
G1 X181.615 Y54.472 E13.28099
G1 X181.78 Y55.248 E13.35596
G1 X181.866 Y56.036 E13.43087
G1 X181.88 Y56.499 E13.47464
G1 X181.88 Y166.5 E23.86974
G1 X181.84 Y167.292 E23.94468
G1 X181.721 Y168.077 E24.01971
G1 X181.523 Y168.845 E24.09466
G1 X181.248 Y169.59 E24.1697
G1 X180.901 Y170.303 E24.24464
G1 X180.483 Y170.978 E24.31966
G1 X180 Y171.607 E24.39461
G1 X179.455 Y172.184 E24.46961
G1 X178.856 Y172.704 E24.54457
G1 X178.207 Y173.16 E24.61953
G1 X177.515 Y173.549 E24.69455
G1 X176.788 Y173.867 E24.76953
G1 X176.032 Y174.11 E24.84457
G1 X175.256 Y174.275 E24.91954
G1 X174.468 Y174.361 E24.99445
G1 X174.005 Y174.375 E25.03823
G1 X49.005 Y174.375 E36.85073
G1 X48.213 Y174.335 E36.92567
G1 X47.428 Y174.216 E37.0007
G1 X46.66 Y174.018 E37.07565
G1 X45.915 Y173.743 E37.15069
G1 X45.202 Y173.396 E37.22563
G1 X44.527 Y172.978 E37.30065
G1 X43.898 Y172.495 E37.3756
G1 X43.321 Y171.95 E37.4506
G1 X42.801 Y171.351 E37.52556
G1 X42.345 Y170.702 E37.60052
G1 X41.956 Y170.01 E37.67553
G1 X41.638 Y169.283 E37.75052
G1 X41.395 Y168.527 E37.82556
G1 X41.23 Y167.751 E37.90053
G1 X41.144 Y166.963 E37.97544
G1 X41.13 Y166.5 E38.01922
G1 X41.13 Y56.499 E48.41431
G1 X41.17 Y55.707 E48.48925
G1 X41.289 Y54.922 E48.56428
G1 X41.487 Y54.154 E48.63923
G1 X41.762 Y53.409 E48.71427
G1 X42.109 Y52.696 E48.78921
G1 X42.527 Y52.021 E48.86424
G1 X43.01 Y51.392 E48.93918
G1 X43.555 Y50.815 E49.01418
G1 X44.154 Y50.295 E49.08914
G0 F4500 X44.495 Y50.475
G1 F1800 X45.139 Y50.043 E49.16243
G1 X45.824 Y49.68 E49.23569
G1 X46.543 Y49.388 E49.30902
G1 X47.288 Y49.173 E49.3823
G1 X48.051 Y49.035 E49.45557
G1 X49.005 Y48.974 E49.54591
G1 X174.005 Y48.974 E61.35841
G1 X174.78 Y49.014 E61.43174
G1 X175.546 Y49.133 E61.505
G1 X176.296 Y49.331 E61.5783
G1 X177.022 Y49.605 E61.65163
G1 X177.715 Y49.952 E61.72487
G1 X178.369 Y50.369 E61.79817
G1 X178.977 Y50.851 E61.87149
G1 X179.532 Y51.393 E61.9448
G1 X180.029 Y51.989 E62.01813
G1 X180.461 Y52.633 E62.09141
G1 X180.824 Y53.318 E62.16467
G1 X181.116 Y54.037 E62.23801
G1 X181.331 Y54.782 E62.31128
G1 X181.469 Y55.545 E62.38456
G1 X181.53 Y56.499 E62.47489
G1 X181.53 Y166.5 E72.86999
G1 X181.49 Y167.275 E72.94332
G1 X181.371 Y168.041 E73.01658
G1 X181.173 Y168.791 E73.08988
G1 X180.899 Y169.517 E73.16321
G1 X180.552 Y170.21 E73.23645
G1 X180.135 Y170.864 E73.30975
G1 X179.653 Y171.472 E73.38307
G1 X179.111 Y172.027 E73.45638
G1 X178.515 Y172.524 E73.52971
G1 X177.871 Y172.956 E73.603
G1 X177.186 Y173.319 E73.67626
G1 X176.467 Y173.611 E73.74959
G1 X175.722 Y173.826 E73.82287
G1 X174.959 Y173.964 E73.89614
G1 X174.005 Y174.025 E73.98648
G1 X49.005 Y174.025 E85.79898
G1 X48.23 Y173.985 E85.87231
G1 X47.464 Y173.866 E85.94557
G1 X46.714 Y173.668 E86.01887
G1 X45.988 Y173.394 E86.0922
G1 X45.295 Y173.047 E86.16544
G1 X44.641 Y172.63 E86.23874
G1 X44.033 Y172.148 E86.31206
G1 X43.478 Y171.606 E86.38537
G1 X42.981 Y171.01 E86.4587
G1 X42.549 Y170.366 E86.53198
G1 X42.186 Y169.681 E86.60524
G1 X41.894 Y168.962 E86.67858
G1 X41.679 Y168.217 E86.75185
G1 X41.541 Y167.454 E86.82513
G1 X41.48 Y166.5 E86.91547
G1 X41.48 Y56.499 E97.31056
G1 X41.52 Y55.724 E97.38389
G1 X41.639 Y54.958 E97.45715
G1 X41.837 Y54.208 E97.53045
G1 X42.111 Y53.482 E97.60378
G1 X42.458 Y52.789 E97.67702
G1 X42.875 Y52.135 E97.75032
G1 X43.357 Y51.527 E97.82364
G1 X43.899 Y50.972 E97.89695
G1 X44.495 Y50.475 E97.97028
G0 F4500 X44.834 Y50.661
G1 F1800 X45.473 Y50.254 E98.04188
G1 X46.151 Y49.916 E98.11347
G1 X46.86 Y49.652 E98.18496
G1 X47.594 Y49.464 E98.25657
G1 X48.343 Y49.355 E98.32809
G1 X49.005 Y49.324 E98.39072
G1 X174.005 Y49.324 E110.20322
G1 X174.761 Y49.364 E110.27476
G1 X175.509 Y49.483 E110.34634
G1 X176.24 Y49.681 E110.41791
G1 X176.947 Y49.955 E110.48956
G1 X177.62 Y50.301 E110.56107
G1 X178.253 Y50.717 E110.63265
G1 X178.839 Y51.197 E110.70423
G1 X179.371 Y51.736 E110.7758
G1 X179.843 Y52.328 E110.84735
G1 X180.25 Y52.967 E110.91894
G1 X180.588 Y53.645 E110.99054
G1 X180.852 Y54.354 E111.06203
G1 X181.04 Y55.088 E111.13363
G1 X181.149 Y55.837 E111.20516
G1 X181.18 Y56.499 E111.26779
G1 X181.18 Y166.5 E121.66288
G1 X181.14 Y167.256 E121.73442
G1 X181.021 Y168.004 E121.806
G1 X180.823 Y168.735 E121.87757
G1 X180.549 Y169.442 E121.94922
G1 X180.203 Y170.115 E122.02073
G1 X179.787 Y170.748 E122.09231
G1 X179.307 Y171.334 E122.16389
G1 X178.768 Y171.866 E122.23546
G1 X178.176 Y172.338 E122.30701
G1 X177.537 Y172.745 E122.3786
G1 X176.859 Y173.083 E122.45019
G1 X176.15 Y173.347 E122.52169
G1 X175.416 Y173.535 E122.59329
G1 X174.667 Y173.644 E122.66482
G1 X174.005 Y173.675 E122.72745
G1 X49.005 Y173.675 E134.53995
G1 X48.249 Y173.635 E134.61149
G1 X47.501 Y173.516 E134.68306
G1 X46.77 Y173.318 E134.75463
G1 X46.063 Y173.044 E134.82628
G1 X45.39 Y172.698 E134.8978
G1 X44.757 Y172.282 E134.96938
G1 X44.171 Y171.802 E135.04096
G1 X43.639 Y171.263 E135.11253
G1 X43.167 Y170.671 E135.18407
G1 X42.76 Y170.032 E135.25567
G1 X42.422 Y169.354 E135.32726
G1 X42.158 Y168.645 E135.39875
G1 X41.97 Y167.911 E135.47036
G1 X41.861 Y167.162 E135.54188
G1 X41.83 Y166.5 E135.60451
G1 X41.83 Y56.499 E145.99961
G1 X41.87 Y55.743 E146.07115
G1 X41.989 Y54.995 E146.14272
G1 X42.187 Y54.264 E146.21429
G1 X42.461 Y53.557 E146.28594
G1 X42.807 Y52.884 E146.35746
G1 X43.223 Y52.251 E146.42904
G1 X43.703 Y51.665 E146.50062
G1 X44.242 Y51.133 E146.57219
G1 X44.834 Y50.661 E146.64373
G0 F4500 X44.584 Y51.299
G1 F1800 X45.172 Y50.852 E146.71353
G1 X45.805 Y50.471 E146.78335
G1 X46.475 Y50.16 E146.85316
G1 X47.175 Y49.924 E146.92296
G1 X47.896 Y49.765 E146.99274
G1 X48.631 Y49.684 E147.06261
G1 X49.005 Y49.674 E147.09797
G1 X174.005 Y49.674 E158.91047
G1 X174.743 Y49.714 E158.98031
G1 X175.471 Y49.833 E159.05002
G1 X176.183 Y50.031 E159.11986
G1 X176.869 Y50.304 E159.18963
G1 X177.522 Y50.65 E159.25947
G1 X178.134 Y51.064 E159.32929
G1 X178.697 Y51.542 E159.39908
G1 X179.205 Y52.078 E159.46887
G1 X179.652 Y52.666 E159.53867
G1 X180.033 Y53.299 E159.60849
G1 X180.344 Y53.969 E159.67829
G1 X180.58 Y54.669 E159.7481
G1 X180.739 Y55.39 E159.81787
G1 X180.82 Y56.125 E159.88775
G1 X180.83 Y56.499 E159.9231
G1 X180.83 Y166.5 E170.3182
G1 X180.79 Y167.238 E170.38804
G1 X180.671 Y167.966 E170.45775
G1 X180.473 Y168.678 E170.52759
G1 X180.2 Y169.364 E170.59736
G1 X179.854 Y170.017 E170.6672
G1 X179.44 Y170.629 E170.73702
G1 X178.962 Y171.192 E170.80681
G1 X178.426 Y171.7 E170.8766
G1 X177.838 Y172.147 E170.9464
G1 X177.205 Y172.528 E171.01622
G1 X176.535 Y172.839 E171.08602
G1 X175.835 Y173.075 E171.15583
G1 X175.114 Y173.234 E171.2256
G1 X174.379 Y173.315 E171.29548
G1 X174.005 Y173.325 E171.33083
G1 X49.005 Y173.325 E183.14333
G1 X48.267 Y173.285 E183.21318
G1 X47.539 Y173.166 E183.28289
G1 X46.827 Y172.968 E183.35272
G1 X46.141 Y172.695 E183.4225
G1 X45.488 Y172.349 E183.49233
G1 X44.876 Y171.935 E183.56216
G1 X44.313 Y171.457 E183.63195
G1 X43.805 Y170.921 E183.70173
G1 X43.358 Y170.333 E183.77153
G1 X42.977 Y169.7 E183.84135
G1 X42.666 Y169.03 E183.91116
G1 X42.43 Y168.33 E183.98096
G1 X42.271 Y167.609 E184.05074
G1 X42.19 Y166.874 E184.12061
G1 X42.18 Y166.5 E184.15597
G1 X42.18 Y56.499 E194.55106
G1 X42.22 Y55.761 E194.62091
G1 X42.339 Y55.033 E194.69062
G1 X42.537 Y54.321 E194.76045
G1 X42.81 Y53.635 E194.83023
G1 X43.156 Y52.982 E194.90006
G1 X43.57 Y52.37 E194.96988
G1 X44.048 Y51.807 E195.03968
G1 X44.584 Y51.299 E195.10946
G0 F4500 X44.926 Y51.47
G1 F1800 X45.509 Y51.049 E195.17742
G1 X46.136 Y50.695 E195.24546
G1 X46.797 Y50.412 E195.31341
G1 X47.486 Y50.205 E195.3814
G1 X48.194 Y50.075 E195.44942
G1 X49.005 Y50.024 E195.52621
G1 X174.005 Y50.024 E207.33871
G1 X174.723 Y50.064 E207.40667
G1 X175.433 Y50.183 E207.4747
G1 X176.125 Y50.381 E207.54272
G1 X176.79 Y50.654 E207.61065
G1 X177.422 Y50.999 E207.67869
G1 X178.011 Y51.412 E207.74667
G1 X178.55 Y51.888 E207.81463
G1 X179.034 Y52.42 E207.8826
G1 X179.455 Y53.003 E207.95055
G1 X179.809 Y53.63 E208.01859
G1 X180.092 Y54.291 E208.08654
G1 X180.299 Y54.98 E208.15453
G1 X180.429 Y55.688 E208.22255
G1 X180.48 Y56.499 E208.29934
G1 X180.48 Y166.5 E218.69444
G1 X180.44 Y167.218 E218.76239
G1 X180.321 Y167.928 E218.83043
G1 X180.123 Y168.62 E218.89844
G1 X179.85 Y169.285 E218.96638
G1 X179.505 Y169.917 E219.03442
G1 X179.092 Y170.506 E219.1024
G1 X178.616 Y171.045 E219.17035
G1 X178.084 Y171.529 E219.23832
G1 X177.501 Y171.95 E219.30628
G1 X176.874 Y172.304 E219.37432
G1 X176.213 Y172.587 E219.44227
G1 X175.524 Y172.794 E219.51025
G1 X174.816 Y172.924 E219.57828
G1 X174.005 Y172.975 E219.65507
G1 X49.005 Y172.975 E231.46757
G1 X48.287 Y172.935 E231.53553
G1 X47.577 Y172.816 E231.60356
G1 X46.885 Y172.618 E231.67157
G1 X46.22 Y172.345 E231.73951
G1 X45.588 Y172 E231.80755
G1 X44.999 Y171.587 E231.87553
G1 X44.46 Y171.111 E231.94348
G1 X43.976 Y170.579 E232.01145
G1 X43.555 Y169.996 E232.07941
G1 X43.201 Y169.369 E232.14745
G1 X42.918 Y168.708 E232.2154
G1 X42.711 Y168.019 E232.28338
G1 X42.581 Y167.311 E232.35141
G1 X42.53 Y166.5 E232.4282
G1 X42.53 Y56.499 E242.82329
G1 X42.57 Y55.781 E242.89125
G1 X42.689 Y55.071 E242.95928
G1 X42.887 Y54.379 E243.0273
G1 X43.16 Y53.714 E243.09523
G1 X43.505 Y53.082 E243.16328
G1 X43.918 Y52.493 E243.23126
G1 X44.394 Y51.954 E243.29921
G1 X44.926 Y51.47 E243.36718
G0 F4500 X45.267 Y51.647
G1 F1800 X45.845 Y51.252 E243.43333
G1 X46.464 Y50.926 E243.49945
G1 X47.116 Y50.672 E243.56557
G1 X47.793 Y50.495 E243.6317
G1 X48.486 Y50.396 E243.69785
G1 X49.005 Y50.374 E243.74694
G1 X174.005 Y50.374 E255.55944
G1 X174.704 Y50.414 E255.6256
G1 X175.393 Y50.533 E255.69168
G1 X176.064 Y50.731 E255.75779
G1 X176.709 Y51.003 E255.82394
G1 X177.318 Y51.347 E255.89004
G1 X177.884 Y51.759 E255.95619
G1 X178.399 Y52.232 E256.02227
G1 X178.857 Y52.761 E256.0884
G1 X179.252 Y53.339 E256.15455
G1 X179.578 Y53.958 E256.22067
G1 X179.832 Y54.61 E256.28679
G1 X180.009 Y55.287 E256.35292
G1 X180.108 Y55.98 E256.41907
G1 X180.13 Y56.499 E256.46816
G1 X180.13 Y166.5 E266.86326
G1 X180.09 Y167.199 E266.92942
G1 X179.971 Y167.888 E266.99549
G1 X179.773 Y168.559 E267.06161
G1 X179.501 Y169.204 E267.12776
G1 X179.157 Y169.813 E267.19385
G1 X178.745 Y170.379 E267.26001
G1 X178.272 Y170.894 E267.32609
G1 X177.743 Y171.352 E267.39221
G1 X177.165 Y171.747 E267.45837
G1 X176.546 Y172.073 E267.52448
G1 X175.894 Y172.327 E267.59061
G1 X175.217 Y172.504 E267.65673
G1 X174.524 Y172.603 E267.72289
G1 X174.005 Y172.625 E267.77198
G1 X49.005 Y172.625 E279.58448
G1 X48.306 Y172.585 E279.65064
G1 X47.617 Y172.466 E279.71671
G1 X46.946 Y172.268 E279.78283
G1 X46.301 Y171.996 E279.84898
G1 X45.692 Y171.652 E279.91508
G1 X45.126 Y171.24 E279.98123
G1 X44.611 Y170.767 E280.04731
G1 X44.153 Y170.238 E280.11343
G1 X43.758 Y169.66 E280.17959
G1 X43.432 Y169.041 E280.2457
G1 X43.178 Y168.389 E280.31183
G1 X43.001 Y167.712 E280.37796
G1 X42.902 Y167.019 E280.44411
G1 X42.88 Y166.5 E280.4932
G1 X42.88 Y56.499 E290.88829
G1 X42.92 Y55.8 E290.95446
G1 X43.039 Y55.111 E291.02053
G1 X43.237 Y54.44 E291.08664
G1 X43.509 Y53.795 E291.15279
G1 X43.853 Y53.186 E291.21889
G1 X44.265 Y52.62 E291.28505
G1 X44.738 Y52.105 E291.35113
G1 X45.267 Y51.647 E291.41725
G0 F4500 X45.607 Y51.83
G1 F1800 X46.179 Y51.463 E291.48147
G1 X46.79 Y51.166 E291.54567
G1 X47.432 Y50.942 E291.60993
G1 X48.095 Y50.796 E291.67408
G1 X49.005 Y50.724 E291.76035
G1 X174.005 Y50.724 E303.57285
G1 X174.683 Y50.764 E303.63703
G1 X175.352 Y50.883 E303.70124
G1 X176.002 Y51.08 E303.76543
G1 X176.625 Y51.352 E303.82967
G1 X177.211 Y51.696 E303.89388
G1 X177.753 Y52.106 E303.9581
G1 X178.243 Y52.576 E304.02227
G1 X178.674 Y53.101 E304.08646
G1 X179.041 Y53.673 E304.15068
G1 X179.338 Y54.284 E304.21488
G1 X179.562 Y54.926 E304.27913
G1 X179.708 Y55.589 E304.34329
G1 X179.78 Y56.499 E304.42955
G1 X179.78 Y166.5 E314.82465
G1 X179.74 Y167.178 E314.88883
G1 X179.621 Y167.847 E314.95304
G1 X179.424 Y168.497 E315.01723
G1 X179.152 Y169.12 E315.08147
G1 X178.808 Y169.706 E315.14568
G1 X178.398 Y170.248 E315.2099
G1 X177.928 Y170.738 E315.27407
G1 X177.403 Y171.169 E315.33826
G1 X176.831 Y171.536 E315.40248
G1 X176.22 Y171.833 E315.46668
G1 X175.578 Y172.057 E315.53093
G1 X174.915 Y172.203 E315.59509
G1 X174.005 Y172.275 E315.68135
G1 X49.005 Y172.275 E327.49385
G1 X48.327 Y172.235 E327.55803
G1 X47.658 Y172.116 E327.62225
G1 X47.008 Y171.919 E327.68643
G1 X46.385 Y171.647 E327.75067
G1 X45.799 Y171.303 E327.81489
G1 X45.257 Y170.893 E327.87911
G1 X44.767 Y170.423 E327.94327
G1 X44.336 Y169.898 E328.00746
G1 X43.969 Y169.326 E328.07168
G1 X43.672 Y168.715 E328.13588
G1 X43.448 Y168.073 E328.20014
G1 X43.302 Y167.41 E328.26429
G1 X43.23 Y166.5 E328.35056
G1 X43.23 Y56.499 E338.74565
G1 X43.27 Y55.821 E338.80983
G1 X43.389 Y55.152 E338.87405
G1 X43.586 Y54.502 E338.93823
G1 X43.858 Y53.879 E339.00247
G1 X44.202 Y53.293 E339.06668
G1 X44.612 Y52.751 E339.13091
G1 X45.082 Y52.261 E339.19507
G1 X45.607 Y51.83 E339.25926
G0 F4500 X45.425 Y52.423
G1 F1800 X45.946 Y52.019 E339.32156
G1 X46.511 Y51.681 E339.38378
G1 X47.113 Y51.415 E339.44597
G1 X47.743 Y51.223 E339.50821
G1 X48.391 Y51.109 E339.57039
G1 X49.005 Y51.074 E339.62851
G1 X174.005 Y51.074 E351.44101
G1 X174.662 Y51.114 E351.50321
G1 X175.31 Y51.233 E351.56547
G1 X175.938 Y51.43 E351.62767
G1 X176.538 Y51.702 E351.68992
G1 X177.101 Y52.044 E351.75217
G1 X177.618 Y52.452 E351.81441
G1 X178.081 Y52.919 E351.87655
G1 X178.485 Y53.44 E351.93885
G1 X178.823 Y54.005 E352.00107
G1 X179.089 Y54.607 E352.06327
G1 X179.281 Y55.237 E352.12551
G1 X179.395 Y55.885 E352.18768
G1 X179.43 Y56.499 E352.2458
G1 X179.43 Y166.5 E362.64089
G1 X179.39 Y167.157 E362.7031
G1 X179.271 Y167.805 E362.76536
G1 X179.074 Y168.433 E362.82755
G1 X178.802 Y169.033 E362.88981
G1 X178.46 Y169.596 E362.95206
G1 X178.052 Y170.113 E363.01429
G1 X177.585 Y170.576 E363.07644
G1 X177.064 Y170.98 E363.13874
G1 X176.499 Y171.318 E363.20096
G1 X175.897 Y171.584 E363.26315
G1 X175.267 Y171.776 E363.32539
G1 X174.619 Y171.89 E363.38757
G1 X174.005 Y171.925 E363.44569
G1 X49.005 Y171.925 E375.25819
G1 X48.348 Y171.885 E375.32039
G1 X47.7 Y171.766 E375.38265
G1 X47.072 Y171.569 E375.44485
G1 X46.472 Y171.297 E375.5071
G1 X45.909 Y170.955 E375.56935
G1 X45.392 Y170.547 E375.63159
G1 X44.929 Y170.08 E375.69373
G1 X44.525 Y169.559 E375.75603
G1 X44.187 Y168.994 E375.81825
G1 X43.921 Y168.392 E375.88045
G1 X43.729 Y167.762 E375.94269
G1 X43.615 Y167.114 E376.00486
G1 X43.58 Y166.5 E376.06298
G1 X43.58 Y56.499 E386.45807
G1 X43.62 Y55.842 E386.52028
G1 X43.739 Y55.194 E386.58254
G1 X43.936 Y54.566 E386.64473
G1 X44.208 Y53.966 E386.70699
G1 X44.55 Y53.403 E386.76924
G1 X44.958 Y52.886 E386.83147
G1 X45.425 Y52.423 E386.89362
G0 F4500 X45.768 Y52.591
G1 F1800 X46.283 Y52.216 E386.95382
G1 X46.84 Y51.909 E387.01392
G1 X47.432 Y51.674 E387.07411
G1 X48.049 Y51.515 E387.13433
G1 X48.681 Y51.434 E387.19454
G1 X49.005 Y51.424 E387.22517
G1 X174.005 Y51.424 E399.03767
G1 X174.641 Y51.464 E399.09789
G1 X175.266 Y51.583 E399.15802
G1 X175.872 Y51.78 E399.21823
G1 X176.448 Y52.051 E399.27839
G1 X176.986 Y52.392 E399.33858
G1 X177.477 Y52.798 E399.39879
G1 X177.913 Y53.262 E399.45896
G1 X178.288 Y53.777 E399.51916
G1 X178.595 Y54.334 E399.57926
G1 X178.83 Y54.926 E399.63945
